X:1
T:Keine Schönheit Hat die Welt, 77.77
T:Johann Scheffler, 1657
T:Keine Schönheit Hat die Welt, 77.77
T:Public Domain
C:Johann Scheffler, 1657
Z:Public Domain
%%score ( 1 2 ) ( 3 4 )
L:1/8
M:3/4
K:C
V:1 treble 
V:2 treble 
V:3 bass 
V:4 bass 
V:1
 (E2 F2) [CG]2 | [DF]4 [CE]2 | [CD]4 [B,D]2 | C6 | [CE]4 [B,D]2 | (E2 ^F2) [DG]2 | [EG]4 [D^F]2 | %7
 [DG]6 | [Ec]4 [Ec]2 | [GB]4 [DG]2 | [EA]4 [DA]2 | [B,G]6 | (E2 F2) [CG]2 | (G2 A2) [EB]2 | %14
 [Ad]4 [Gd]2 | [Ec]6 |] %16
V:2
 C4 x2 | x6 | x6 | C6 | x6 | C4 x2 | x6 | x6 | x6 | x6 | x6 | x6 | C4 x2 | F4 x2 | x6 | x6 |] %16
V:3
 (C,2 D,2) [E,G,]2 | (F,2 G,2) A,2 | (F,2 D,2) G,2 | [C,E,]6 | [C,G,]4 [G,,G,]2 | %5
 (G,2 A,2) [B,,G,]2 | (C,2 A,,2) [D,A,]2 | [G,,B,]6 | [A,,C]4 [A,,C]2 | (G,,2 A,,2) [B,,G,]2 | %10
 (C,2 A,,2) [D,^F,]2 | [G,,G,]6 | (C,2 D,2) [E,G,]2 | (F,2 G,2) [A,C]2 | (F,2 D,2) [G,B,]2 | %15
 [C,C]6 |] %16
V:4
 G,4 x2 | A,4 A,2 | A,4 G,2 | x6 | x6 | C,4 x2 | C4 x2 | x6 | x6 | D4 x2 | G,4 x2 | x6 | G,4 x2 | %13
 C4 x2 | C4 x2 | x6 |] %16

